public/static/img/finance/plus.svg

<svg width="30" height="30" viewBox="0 0 30 30" fill="none" xmlns="http://www.w3.org/2000/svg">
<rect width="30" height="30" rx="15" fill="#00A609"/>
<path d="M22.6239 16.1511H16.1438V22.6322C16.1438 23.2638 15.6316 23.7755 15 23.7755C14.3684 23.7755 13.8562 23.2638 13.8562 22.6322V16.1511H7.37607C6.74396 16.1511 6.23224 15.6394 6.23224 15.0078C6.23224 14.3764 6.74402 13.8645 7.37607 13.8645H13.8561V7.38336C13.8561 6.75201 14.3684 6.24006 15 6.24006C15.6316 6.24006 16.1438 6.75203 16.1438 7.38336V13.8645H22.6239C23.256 13.8645 23.7677 14.3764 23.7677 15.0078C23.7677 15.6393 23.256 16.151 22.6239 16.151L22.6239 16.1511Z" fill="white"/>
</svg>

<svg width="30" height="30" fill="none" xmlns="http://www.w3.org/2000/svg"><rect width="30" height="30" rx="15" fill="#00A609"/><path d="M22.624 16.151h-6.48v6.481a1.144 1.144 0 0 1-2.288 0v-6.48h-6.48a1.143 1.143 0 1 1 0-2.288h6.48v-6.48a1.144 1.144 0 0 1 2.288 0v6.48h6.48a1.143 1.143 0 1 1 0 2.287Z" fill="#fff"/></svg>
